X: 10621
T: AULD ROBIN GRAY
%R: hornpipe, march
B: "Edinburgh Repository of Music" v.1 p.62 #1
F: http://digital.nls.uk/special-collections-of-printed-music/pageturner.cfm?id=87776133
Z: 2015 John Chambers <jc:trillian.mit.edu>
M: C
L: 1/8
K: F
F |\
A>Bc>d {d}c3c | d>Bf>d {d}c3F |\
~A>B~c>d {d}c2B>A | {A}G>F {c}B>A (A2G)F |\
A>Bc>d {d}c3c |
~d>efA {c}B2G>G |\
A<c f>a b<g ef | A2{BA}TG>F F3"_p"_A |\
"_fz"A2GA {G}F2AB | c2_d<B {d}c2=G>G |
_A>GA>=A _B>AB=B | c=B fB {Bcd}Hc3 c |\
A<F c>d {d}c3c | d>cBA B3G |\
A<c f>a b<Hg e>f | A2{BA}TG>F F3 |]

%%sep 2 1 500
%%sep 1 1 500

